src/assets/outline/WalletRemove.svg

<?xml version="1.0" encoding="UTF-8"?>
<svg width="24" height="24" viewBox="0 0 24 24" xmlns="http://www.w3.org/2000/svg">
 <path d="m17 22.75h-9.37c-0.32 0-0.60002-0.2-0.71002-0.49s-0.01997-0.63 0.22003-0.83 0.46-0.46 0.62-0.74c0.32-0.51 0.47998-1.09 0.47998-1.68 0-1.79-1.46-3.25-3.25-3.25-0.93 0-1.82 0.4-2.44 1.11-0.21 0.23-0.54002 0.32-0.83002 0.21s-0.48999-0.39-0.48999-0.7v-4.38c0-3.08 1.9-5.31 4.85-5.68 0.27-0.04 0.57996-0.07001 0.89996-0.07001h10c0.24 0 0.55 0.01 0.87 0.06 2.95 0.34 4.88 2.58 4.88 5.69v5c0.02 3.44-2.29 5.75-5.73 5.75zm-7.82-1.5h7.82c2.58 0 4.25-1.67 4.25-4.25v-5c0-2.34-1.37-3.95-3.59-4.21-0.24-0.04-0.45-0.03998-0.66-0.03998h-10c-0.24 0-0.47001 0.01999-0.70001 0.04999-2.2 0.28-3.55 1.88-3.55 4.2v2.82c0.68-0.37 1.46-0.57 2.25-0.57 2.62 0 4.75 2.13 4.75 4.75 0 0.79-0.20001 1.57-0.57001 2.25z"/>
 <path d="m6.19 7.81c-0.24 0-0.45998-0.11-0.60998-0.31-0.17-0.23-0.19-0.53003-0.06-0.78003 0.17-0.34 0.40997-0.66997 0.71997-0.96997l3.25-3.26c1.66-1.65 4.36-1.65 6.02 0l1.75 1.78c0.74 0.73 1.19 1.71 1.24 2.75 0.01 0.23-0.08 0.44998-0.25 0.59998s-0.4 0.21999-0.62 0.17999c-0.2-0.03-0.41-0.03998-0.63-0.03998h-10c-0.24 0-0.47001 0.01999-0.70001 0.04999h-0.10999zm1.67-1.56h8.96c-0.13-0.34-0.34-0.64999-0.62-0.92999l-1.76-1.78c-1.07-1.06-2.82-1.06-3.9 0l-2.68 2.71z"/>
 <path d="m22 17.25h-3c-1.52 0-2.75-1.23-2.75-2.75s1.23-2.75 2.75-2.75h3c0.41 0 0.75 0.34 0.75 0.75s-0.34 0.75-0.75 0.75h-3c-0.69 0-1.25 0.56-1.25 1.25s0.56 1.25 1.25 1.25h3c0.41 0 0.75 0.34 0.75 0.75s-0.34 0.75-0.75 0.75z"/>
 <path d="m5 23.75c-1.66 0-3.22-0.88-4.06-2.31-0.45-0.72-0.69-1.57-0.69-2.44 0-1.15 0.42-2.26 1.19-3.13 0.9-1.03 2.2-1.62 3.56-1.62 2.62 0 4.75 2.13 4.75 4.75 0 0.87-0.24 1.72-0.69 2.45-0.25 0.42-0.57001 0.8-0.95001 1.12-0.83 0.76-1.94 1.18-3.11 1.18zm0-8c-0.93 0-1.82 0.4-2.44 1.11-0.52 0.6-0.81 1.36-0.81 2.14 0 0.59 0.15997 1.17 0.46997 1.67 0.58 0.98 1.65 1.58 2.78 1.58 0.79 0 1.55-0.29 2.13-0.81 0.26001-0.22 0.48002-0.48 0.64002-0.76 0.32-0.51 0.47998-1.09 0.47998-1.68 0-1.79-1.46-3.25-3.25-3.25z"/>
 <path d="m6.0699 20.79c-0.19 0-0.38003-0.0699-0.53003-0.2199l-2.11-2.11c-0.29-0.29-0.29-0.77 0-1.06s0.77-0.29 1.06 0l2.11 2.11c0.29 0.29 0.29 0.77 0 1.06-0.15 0.15-0.33997 0.2199-0.52997 0.2199z"/>
 <path d="m3.9301 20.82c-0.19 0-0.37997-0.07-0.52997-0.22-0.29-0.29-0.29-0.77 0-1.06l2.11-2.11c0.29-0.29 0.77-0.29 1.06 0s0.29 0.77 0 1.06l-2.11 2.11c-0.15 0.15-0.34002 0.22-0.53002 0.22z"/>
</svg>

<svg width="24" height="24" viewBox="0 0 24 24"  xmlns="http://www.w3.org/2000/svg">
<path d="M17 22.75H7.63C7.31 22.75 7.02998 22.55 6.91998 22.26C6.80998 21.97 6.90001 21.63 7.14001 21.43C7.38001 21.23 7.60001 20.97 7.76001 20.69C8.08001 20.18 8.23999 19.6 8.23999 19.01C8.23999 17.22 6.77999 15.76 4.98999 15.76C4.05999 15.76 3.16999 16.16 2.54999 16.87C2.33999 17.1 2.00997 17.19 1.71997 17.08C1.42997 16.97 1.22998 16.69 1.22998 16.38V12C1.22998 8.92 3.13002 6.69001 6.08002 6.32001C6.35002 6.28001 6.65998 6.25 6.97998 6.25H16.98C17.22 6.25 17.53 6.26 17.85 6.31C20.8 6.65 22.73 8.89 22.73 12V17C22.75 20.44 20.44 22.75 17 22.75ZM9.17999 21.25H17C19.58 21.25 21.25 19.58 21.25 17V12C21.25 9.66 19.88 8.04998 17.66 7.78998C17.42 7.74998 17.21 7.75 17 7.75H7C6.76 7.75 6.52999 7.76999 6.29999 7.79999C4.09999 8.07999 2.75 9.68 2.75 12V14.82C3.43 14.45 4.21 14.25 5 14.25C7.62 14.25 9.75 16.38 9.75 19C9.75 19.79 9.54999 20.57 9.17999 21.25Z" />
<path d="M6.19003 7.80995C5.95003 7.80995 5.73005 7.69995 5.58005 7.49995C5.41005 7.26995 5.39005 6.96992 5.52005 6.71992C5.69005 6.37992 5.93002 6.04995 6.24002 5.74995L9.49002 2.48994C11.15 0.839941 13.85 0.839941 15.51 2.48994L17.26 4.26997C18 4.99997 18.45 5.97997 18.5 7.01997C18.51 7.24997 18.42 7.46995 18.25 7.61995C18.08 7.76995 17.85 7.83994 17.63 7.79994C17.43 7.76994 17.22 7.75996 17 7.75996H7.00003C6.76003 7.75996 6.53002 7.77995 6.30002 7.80995C6.27002 7.80995 6.23003 7.80995 6.19003 7.80995ZM7.86001 6.24995H16.82C16.69 5.90995 16.48 5.59996 16.2 5.31996L14.44 3.53993C13.37 2.47993 11.62 2.47993 10.54 3.53993L7.86001 6.24995Z" />
<path d="M22 17.25H19C17.48 17.25 16.25 16.02 16.25 14.5C16.25 12.98 17.48 11.75 19 11.75H22C22.41 11.75 22.75 12.09 22.75 12.5C22.75 12.91 22.41 13.25 22 13.25H19C18.31 13.25 17.75 13.81 17.75 14.5C17.75 15.19 18.31 15.75 19 15.75H22C22.41 15.75 22.75 16.09 22.75 16.5C22.75 16.91 22.41 17.25 22 17.25Z" />
<path d="M5 23.75C3.34 23.75 1.78 22.87 0.940002 21.44C0.490002 20.72 0.25 19.87 0.25 19C0.25 17.85 0.670002 16.74 1.44 15.87C2.34 14.84 3.64 14.25 5 14.25C7.62 14.25 9.75 16.38 9.75 19C9.75 19.87 9.51 20.72 9.06 21.45C8.81 21.87 8.48999 22.25 8.10999 22.57C7.27999 23.33 6.17 23.75 5 23.75ZM5 15.75C4.07 15.75 3.18 16.15 2.56 16.86C2.04 17.46 1.75 18.22 1.75 19C1.75 19.59 1.90997 20.17 2.21997 20.67C2.79997 21.65 3.87 22.25 5 22.25C5.79 22.25 6.55 21.96 7.13 21.44C7.39001 21.22 7.61002 20.96 7.77002 20.68C8.09002 20.17 8.25 19.59 8.25 19C8.25 17.21 6.79 15.75 5 15.75Z" />
<path d="M6.06992 20.7899C5.87992 20.7899 5.68989 20.72 5.53989 20.57L3.4299 18.46C3.1399 18.17 3.1399 17.69 3.4299 17.4C3.7199 17.11 4.1999 17.11 4.4899 17.4L6.59989 19.51C6.88989 19.8 6.88989 20.28 6.59989 20.57C6.44989 20.72 6.25992 20.7899 6.06992 20.7899Z" />
<path d="M3.93009 20.8199C3.74009 20.8199 3.55012 20.7499 3.40012 20.5999C3.11012 20.3099 3.11012 19.8299 3.40012 19.5399L5.5101 17.4299C5.8001 17.1399 6.2801 17.1399 6.5701 17.4299C6.8601 17.7199 6.8601 18.1999 6.5701 18.4899L4.46011 20.5999C4.31011 20.7499 4.12009 20.8199 3.93009 20.8199Z" />
</svg>
